actions/16/node-smooth.svg

<?xml version="1.0" encoding="UTF-8" standalone="no"?>
<!-- Created with Inkscape (http://www.inkscape.org/) -->

<svg
   xmlns:dc="http://purl.org/dc/elements/1.1/"
   xmlns:cc="http://creativecommons.org/ns#"
   xmlns:rdf="http://www.w3.org/1999/02/22-rdf-syntax-ns#"
   xmlns:svg="http://www.w3.org/2000/svg"
   xmlns="http://www.w3.org/2000/svg"
   xmlns:xlink="http://www.w3.org/1999/xlink"
   xmlns:inkscape="http://www.inkscape.org/namespaces/inkscape"
   version="1.0"
   width="16"
   height="16"
   id="svg8472">
  <defs
     id="defs8474">
    <linearGradient
       id="linearGradient7653">
      <stop
         id="stop7655"
         style="stop-color:#babdb6;stop-opacity:1"
         offset="0" />
      <stop
         id="stop7657"
         style="stop-color:#eeeeec;stop-opacity:0"
         offset="1" />
    </linearGradient>
    <linearGradient
       id="linearGradient7669">
      <stop
         id="stop7671"
         style="stop-color:#555753;stop-opacity:1"
         offset="0" />
      <stop
         id="stop7673"
         style="stop-color:#555753;stop-opacity:0"
         offset="1" />
    </linearGradient>
    <linearGradient
       x1="336.38605"
       y1="426.56412"
       x2="336.38605"
       y2="424.16095"
       id="linearGradient9774"
       xlink:href="#linearGradient7653"
       gradientUnits="userSpaceOnUse"
       gradientTransform="matrix(0.6619286,0,0,0.5541422,-220.77558,-231.53464)" />
    <linearGradient
       x1="336.38605"
       y1="427.76694"
       x2="336.38605"
       y2="424.16095"
       id="linearGradient9777"
       xlink:href="#linearGradient7669"
       gradientUnits="userSpaceOnUse"
       gradientTransform="matrix(0.6626178,0,0,0.5383127,-221.02564,-224.722)" />
  </defs>
  <metadata
     id="metadata8477">
    <rdf:RDF>
      <cc:Work
         rdf:about="">
        <dc:format>image/svg+xml</dc:format>
        <dc:type
           rdf:resource="http://purl.org/dc/dcmitype/StillImage" />
        <dc:title>Node Smooth</dc:title>
        <dc:date>2006-05-01</dc:date>
        <dc:creator>
          <cc:Agent>
            <dc:title>Lapo Calamandrei</dc:title>
          </cc:Agent>
        </dc:creator>
        <cc:license
           rdf:resource="http://creativecommons.org/licenses/GPL/2.0/" />
        <dc:subject>
          <rdf:Bag>
            <rdf:li>node</rdf:li>
            <rdf:li>vertex</rdf:li>
            <rdf:li>smooth</rdf:li>
            <rdf:li>curve</rdf:li>
          </rdf:Bag>
        </dc:subject>
      </cc:Work>
      <cc:License
         rdf:about="http://creativecommons.org/licenses/GPL/2.0/">
        <cc:permits
           rdf:resource="http://web.resource.org/cc/Reproduction" />
        <cc:permits
           rdf:resource="http://web.resource.org/cc/Distribution" />
        <cc:requires
           rdf:resource="http://web.resource.org/cc/Notice" />
        <cc:permits
           rdf:resource="http://web.resource.org/cc/DerivativeWorks" />
        <cc:requires
           rdf:resource="http://web.resource.org/cc/ShareAlike" />
        <cc:requires
           rdf:resource="http://web.resource.org/cc/SourceCode" />
      </cc:License>
    </rdf:RDF>
  </metadata>
  <g
     id="layer1">
    <path
       d="m 13.375397,3.4220093 c 0.735087,3.831631 -1.853267,7.0650017 -5.8807347,7.0650017 -4.0731408,0 -6.5698813,-3.1870414 -5.8807345,-7.0650017"
       inkscape:connector-curvature="0"
       id="path7726"
       style="fill:none;stroke:url(#linearGradient9777);stroke-width:2.99999952;stroke-linecap:square;stroke-linejoin:miter;stroke-miterlimit:4;stroke-opacity:1;stroke-dasharray:none;stroke-dashoffset:0" />
    <path
       d="m 13.381641,3.3181331 c 0.711376,3.9852867 -1.851338,7.2727539 -5.8746199,7.2727539 -4.0689079,0 -6.6318895,-3.2397756 -5.874613,-7.2727539"
       inkscape:connector-curvature="0"
       id="path7728"
       style="fill:none;stroke:url(#linearGradient9774);stroke-width:0.99999994;stroke-linecap:square;stroke-linejoin:miter;stroke-miterlimit:4;stroke-opacity:1;stroke-dashoffset:0" />
    <path
       d="m 5.50002,8.50001 4,0 0,3.99994 -4,0 0,-3.99994 z"
       inkscape:connector-curvature="0"
       id="path7747"
       style="fill:#d3d7cf;fill-opacity:1;stroke:#888a85;stroke-width:1.00000024;stroke-linecap:round;stroke-linejoin:round;stroke-miterlimit:4;stroke-opacity:1" />
    <path
       d="m 6.50002,9.50002 2,0 0,2.00008 -2,0 0,-2.00008 z"
       inkscape:connector-curvature="0"
       id="path7749"
       style="fill:none;stroke:#ffffff;stroke-width:1.00000048;stroke-linecap:round;stroke-linejoin:miter;stroke-miterlimit:4;stroke-opacity:1" />
  </g>
</svg>

<?xml version="1.0" encoding="UTF-8" standalone="no"?>
<!-- Created with Inkscape (http://www.inkscape.org/) -->
<svg
   xmlns:dc="http://purl.org/dc/elements/1.1/"
   xmlns:cc="http://web.resource.org/cc/"
   xmlns:rdf="http://www.w3.org/1999/02/22-rdf-syntax-ns#"
   xmlns:svg="http://www.w3.org/2000/svg"
   xmlns="http://www.w3.org/2000/svg"
   xmlns:xlink="http://www.w3.org/1999/xlink"
   xmlns:sodipodi="http://sodipodi.sourceforge.net/DTD/sodipodi-0.dtd"
   xmlns:inkscape="http://www.inkscape.org/namespaces/inkscape"
   width="16"
   height="16"
   id="svg8472"
   sodipodi:version="0.32"
   inkscape:version="0.45"
   sodipodi:docbase="/home/lapo/Icone/art-libre/16x16"
   sodipodi:docname="node-smooth.svg"
   inkscape:output_extension="org.inkscape.output.svg.inkscape"
   version="1.0"
   sodipodi:modified="true">
  <defs
     id="defs8474">
    <linearGradient
       inkscape:collect="always"
       id="linearGradient7653">
      <stop
         style="stop-color:#babdb6;stop-opacity:1"
         offset="0"
         id="stop7655" />
      <stop
         style="stop-color:#eeeeec;stop-opacity:0"
         offset="1"
         id="stop7657" />
    </linearGradient>
    <linearGradient
       id="linearGradient7669"
       inkscape:collect="always">
      <stop
         id="stop7671"
         offset="0"
         style="stop-color:#555753;stop-opacity:1" />
      <stop
         id="stop7673"
         offset="1"
         style="stop-color:#555753;stop-opacity:0" />
    </linearGradient>
    <linearGradient
       inkscape:collect="always"
       xlink:href="#linearGradient7653"
       id="linearGradient9774"
       gradientUnits="userSpaceOnUse"
       gradientTransform="matrix(0.6619286,0,0,0.5541422,-220.77558,-231.53464)"
       x1="336.38605"
       y1="426.56412"
       x2="336.38605"
       y2="424.16095" />
    <linearGradient
       inkscape:collect="always"
       xlink:href="#linearGradient7669"
       id="linearGradient9777"
       gradientUnits="userSpaceOnUse"
       gradientTransform="matrix(0.6626178,0,0,0.5383127,-221.02564,-224.722)"
       x1="336.38605"
       y1="427.76694"
       x2="336.38605"
       y2="424.16095" />
  </defs>
  <sodipodi:namedview
     id="base"
     pagecolor="#ffffff"
     bordercolor="#666666"
     borderopacity="1.0"
     inkscape:pageopacity="0.0"
     inkscape:pageshadow="2"
     inkscape:zoom="1"
     inkscape:cx="8.7847992"
     inkscape:cy="5.4665054"
     inkscape:current-layer="layer1"
     showgrid="false"
     inkscape:grid-bbox="true"
     inkscape:document-units="px"
     borderlayer="false"
     inkscape:showpageshadow="false"
     showborder="false"
     inkscape:window-width="872"
     inkscape:window-height="763"
     inkscape:window-x="111"
     inkscape:window-y="220"
     width="16px"
     height="16px" />
  <metadata
     id="metadata8477">
    <rdf:RDF>
      <cc:Work
         rdf:about="">
        <dc:format>image/svg+xml</dc:format>
        <dc:type
           rdf:resource="http://purl.org/dc/dcmitype/StillImage" />
        <dc:title>Node Smooth</dc:title>
        <dc:date>2006-05-01</dc:date>
        <dc:creator>
          <cc:Agent>
            <dc:title>Lapo Calamandrei</dc:title>
          </cc:Agent>
        </dc:creator>
        <cc:license
           rdf:resource="http://creativecommons.org/licenses/GPL/2.0/" />
        <dc:subject>
          <rdf:Bag>
            <rdf:li>node</rdf:li>
            <rdf:li>vertex</rdf:li>
            <rdf:li>smooth</rdf:li>
            <rdf:li>curve</rdf:li>
          </rdf:Bag>
        </dc:subject>
      </cc:Work>
      <cc:License
         rdf:about="http://creativecommons.org/licenses/GPL/2.0/">
        <cc:permits
           rdf:resource="http://web.resource.org/cc/Reproduction" />
        <cc:permits
           rdf:resource="http://web.resource.org/cc/Distribution" />
        <cc:requires
           rdf:resource="http://web.resource.org/cc/Notice" />
        <cc:permits
           rdf:resource="http://web.resource.org/cc/DerivativeWorks" />
        <cc:requires
           rdf:resource="http://web.resource.org/cc/ShareAlike" />
        <cc:requires
           rdf:resource="http://web.resource.org/cc/SourceCode" />
      </cc:License>
    </rdf:RDF>
  </metadata>
  <g
     id="layer1"
     inkscape:label="Layer 1"
     inkscape:groupmode="layer">
    <path
       style="fill:none;fill-opacity:1;stroke:url(#linearGradient9777);stroke-width:2.99999952;stroke-linecap:square;stroke-linejoin:miter;stroke-miterlimit:4;stroke-dasharray:none;stroke-dashoffset:0;stroke-opacity:1"
       d="M 13.375397,3.4220093 C 14.110484,7.2536403 11.52213,10.487011 7.4946623,10.487011 C 3.4215215,10.487011 0.924781,7.2999696 1.6139278,3.4220093"
       id="path7726"
       sodipodi:nodetypes="csc" />
    <path
       style="fill:none;fill-opacity:1;stroke:url(#linearGradient9774);stroke-width:0.99999994;stroke-linecap:square;stroke-linejoin:miter;stroke-miterlimit:4;stroke-dashoffset:0;stroke-opacity:1"
       d="M 13.381641,3.3181331 C 14.093017,7.3034198 11.530303,10.590887 7.5070211,10.590887 C 3.4381132,10.590887 0.8751316,7.3511114 1.6324081,3.3181331"
       id="path7728"
       sodipodi:nodetypes="csc" />
    <path
       style="fill:#d3d7cf;fill-opacity:1;stroke:#888a85;stroke-width:1.00000024;stroke-linecap:round;stroke-linejoin:round;stroke-miterlimit:4;stroke-opacity:1"
       d="M 5.50002,8.50001 L 9.50002,8.50001 L 9.50002,12.49995 L 5.50002,12.49995 L 5.50002,8.50001 z "
       id="path7747" />
    <path
       style="opacity:1;fill:none;fill-opacity:1;stroke:#ffffff;stroke-width:1.00000048;stroke-linecap:round;stroke-linejoin:miter;stroke-miterlimit:4;stroke-opacity:1"
       d="M 6.50002,9.50002 L 8.50002,9.50002 L 8.50002,11.5001 L 6.50002,11.5001 L 6.50002,9.50002 z "
       id="path7749" />
  </g>
</svg>
